src/assets/img/bftp-logo.svg

<svg viewBox="0 0 216.55 136.8" xmlns="http://www.w3.org/2000/svg"><g fill="#323392" transform="translate(-1.46 -10.45)"><path d="m67.48 67v6h-12.09v6.07h9.07v6h-9.07v12.16h-6v-30.23z"/><path d="m96.05 71.36a15.24 15.24 0 0 1 -10.78 26 14.88 14.88 0 0 1 -10.79-4.36 15.26 15.26 0 1 1 21.57-21.6zm-17.26 4.3a9.15 9.15 0 0 0 12.93 13 9.15 9.15 0 1 0 -12.93-13z"/><path d="m105.75 67.11h9.81a11 11 0 0 1 7.88 3.06 8.48 8.48 0 0 1 2.91 6.83v.78a9.72 9.72 0 0 1 -1.9 5.73 6.86 6.86 0 0 1 -3.61 2.78l7 10.9h-7.39l-8.64-13.3v13.3h-6zm14.37 10.08a4.07 4.07 0 0 0 -1.2-2.9 5.63 5.63 0 0 0 -3.73-1.19h-3.4v8.3h2.34 2a4.13 4.13 0 0 0 3.99-4.21z"/><path d="m166.74 67.11v6h-7.39v24.08h-6.07v-24.09h-7.41v-6z"/><path d="m177.22 67.11v12h10.06v-12h6v30.08h-6v-12h-10.06v12h-6v-30.08z"/><path d="m218 67v6h-12.1v6.07h9.1v6h-9.07v6.07h12.07v6h-18.13v-30.14z"/><path d="m1.54 133.1v-21.86h11a10.54 10.54 0 0 1 7.75 3.19 10.54 10.54 0 0 1 3.24 7.76 10.34 10.34 0 0 1 -3.24 7.71 10.63 10.63 0 0 1 -7.75 3.2h-4.72v9.37h-6.28zm11-15.64h-4.72v9.42h4.69a4.72 4.72 0 0 0 0-9.43z"/><path d="m47 111.16v6.26h-12.6v6.3h9.42v6.28h-9.42v6.29h12.6v6.24h-18.88v-31.37z"/><path d="m91.31 137.79v-21.86h11a11 11 0 0 1 11 10.95 10.3 10.3 0 0 1 -3.23 7.71 10.65 10.65 0 0 1 -7.75 3.2h-4.74v9.38h-6.28zm11-15.64h-4.72v9.42h4.69a4.72 4.72 0 0 0 0-9.44z"/><path d="m124.17 115.93v25h12.55v6.24h-18.83v-31.24z"/><path d="m160.17 115.85v6.26h-12.55v6.3h9.38v6.26h-9.42v6.33h12.55v6.25h-18.79v-31.4z"/><path d="m83.25 120.25a15.2 15.2 0 0 0 -10-4.63h-2l-5.09-4.62h-.07a15.85 15.85 0 0 0 -.12 31.7l5.28 4.57h2a15.81 15.81 0 0 0 10-27zm-4.5 17.91a9.24 9.24 0 0 1 -5.55 2.7h-2l-5.09-4.52h-.07a9.49 9.49 0 0 1 -9.51-9.49 9.26 9.26 0 0 1 2.79-6.73 9 9 0 0 1 6.47-2.78l5.46 4.66h2a9.09 9.09 0 0 1 5.55 2.71 9.21 9.21 0 0 1 2.81 6.73 9.11 9.11 0 0 1 -2.86 6.72z"/><path d="m17.56 23.55a10.83 10.83 0 0 1 2.44 1.59 9.86 9.86 0 0 1 0 13.86 9.3 9.3 0 0 1 -6.9 2.91h-11.64v-31.23h8.72a8.42 8.42 0 0 1 6.2 2.6 8.17 8.17 0 0 1 2.48 6 9.93 9.93 0 0 1 -1.3 4.27zm-7.38-6.76h-2.46v5.71c.56 0 1.34-.08 2.34-.15a3 3 0 0 0 2.76-2.87 2.69 2.69 0 0 0 -2.64-2.69zm6.51 15.29a3.9 3.9 0 0 0 -3.62-3.84c-1.86-.1-3.47 0-5.35 0v7.56h5.35a3.66 3.66 0 0 0 3.62-3.72z"/><path d="m67.78 15.37h6.27v31.24h-6.27z"/><path d="m91.13 34.36v-6.28l-.13-12.71h6.28l.13 12.63v6.4a12 12 0 0 1 -3.7 8.9 12.38 12.38 0 0 1 -8.71 3.64h-.21a12.16 12.16 0 0 1 -7-2.17l3.18-5.5a5.66 5.66 0 0 0 3.87 1.39h.14a6.32 6.32 0 0 0 6.15-6.3z"/><path d="m118.18 35.62 15.29-21v32h-6.28v-12.95l-9 12.44-9-12.44v12.94h-6.28v-32z"/><path d="m152.32 14.73 14.26 31.88h-6.8l-2.11-4.75h-10.67l-2.11 4.75h-6.78zm2.87 21.59-2.85-6.61-2.89 6.61z"/><path d="m188.51 32.64v-17.35h6.3v32l-18.81-17.98v17.34h-6.28v-31.94z"/><path d="m207.79 40.46c1.73 0 3.65-1.44 3.65-3.17 0-2.85-3.83-3.25-6-4-3.81-1.3-7.17-4.43-7.17-8.68a9.53 9.53 0 0 1 19-1.32l-6.27 1.32a3.17 3.17 0 0 0 -6.34 0c0 2.81 3.56 3.56 5.73 4.21 3.94 1.13 7.42 4.14 7.42 8.49 0 5.26-4.73 9.52-10 9.52a10 10 0 0 1 -9.91-8.2l6.24-1.32c0 1.74 1.89 3.16 3.66 3.16z"/><path d="m59.12 19.73a15.16 15.16 0 0 0 -10-4.63h-2l-5.12-4.62a15.23 15.23 0 0 0 -10.72 4.62 15.39 15.39 0 0 0 -4.65 11.22 15.76 15.76 0 0 0 15.14 15.77l5.35 4.64h2a15.84 15.84 0 0 0 14.67-15.73 15.26 15.26 0 0 0 -4.67-11.27zm-4.49 17.9a9.2 9.2 0 0 1 -5.55 2.71h-2l-5.08-4.55a9.47 9.47 0 0 1 -9-9.51 9.22 9.22 0 0 1 2.79-6.72 9 9 0 0 1 6-2.75l5.4 4.68h2a9.57 9.57 0 0 1 8.36 9.45 9.08 9.08 0 0 1 -2.92 6.69z"/></g></svg>

<svg id="Layer_1" data-name="Layer 1" xmlns="http://www.w3.org/2000/svg" viewBox="0 0 216.55 136.8"><defs><style>.cls-1{fill:#323392;}</style></defs><title>bftp-header-typo</title><path class="cls-1" d="M67.48,67v6H55.39v6.07h9.07v6H55.39V97.23h-6V67Z" transform="translate(-1.46 -10.45)"/><path class="cls-1" d="M96.05,71.36a15.24,15.24,0,0,1-10.78,26A14.88,14.88,0,0,1,74.48,93a15.26,15.26,0,1,1,21.57-21.6Zm-17.26,4.3a9.15,9.15,0,0,0,12.93,13,9.15,9.15,0,1,0-12.93-13Z" transform="translate(-1.46 -10.45)"/><path class="cls-1" d="M105.75,67.11h9.81a11,11,0,0,1,7.88,3.06A8.48,8.48,0,0,1,126.35,77v.78a9.72,9.72,0,0,1-1.9,5.73,6.86,6.86,0,0,1-3.61,2.78l7,10.9h-7.39l-8.64-13.3v13.3h-6Zm14.37,10.08a4.07,4.07,0,0,0-1.2-2.9,5.63,5.63,0,0,0-3.73-1.19h-3.4v8.3h2.34v0h2A4.13,4.13,0,0,0,120.12,77.19Z" transform="translate(-1.46 -10.45)"/><path class="cls-1" d="M166.74,67.11v6h-7.39V97.19h-6.07V73.1h-7.41v-6Z" transform="translate(-1.46 -10.45)"/><path class="cls-1" d="M177.22,67.11v12h10.06v-12h6V97.19h-6v-12H177.22v12h-6V67.11Z" transform="translate(-1.46 -10.45)"/><path class="cls-1" d="M218,67v6h-12.1v6.07H215v6h-9.07v6.07H218v6H199.87V67Z" transform="translate(-1.46 -10.45)"/><path class="cls-1" d="M1.54,133.1V111.24h11a10.54,10.54,0,0,1,7.75,3.19,10.54,10.54,0,0,1,3.24,7.76,10.34,10.34,0,0,1-3.24,7.71,10.63,10.63,0,0,1-7.75,3.2H7.82v9.37H1.54Zm11-15.64H7.82v9.42h4.69a4.72,4.72,0,0,0,0-9.43Z" transform="translate(-1.46 -10.45)"/><path class="cls-1" d="M47,111.16v6.26H34.4v6.3h9.42V130H34.4v6.29H47v6.24H28.12V111.16Z" transform="translate(-1.46 -10.45)"/><path class="cls-1" d="M91.31,137.79V115.93h11a11,11,0,0,1,11,10.95,10.3,10.3,0,0,1-3.23,7.71,10.65,10.65,0,0,1-7.75,3.2H97.59v9.38H91.31Zm11-15.64H97.59v9.42l4.69,0a4.72,4.72,0,0,0,0-9.44Z" transform="translate(-1.46 -10.45)"/><path class="cls-1" d="M124.17,115.93v25h12.55v6.24H117.89V115.93Z" transform="translate(-1.46 -10.45)"/><path class="cls-1" d="M160.17,115.85v6.26H147.62v6.3H157v6.26h-9.42V141h12.55v6.25H141.34V115.85Z" transform="translate(-1.46 -10.45)"/><path class="cls-1" d="M83.25,120.25a15.2,15.2,0,0,0-10-4.63l-2,0L66.16,111h-.07a15.85,15.85,0,0,0-.12,31.7l5.28,4.57h2a15.81,15.81,0,0,0,10-27Zm-4.5,17.91a9.24,9.24,0,0,1-5.55,2.7l-2,0-5.09-4.52v0h-.07a9.49,9.49,0,0,1-9.51-9.49,9.26,9.26,0,0,1,2.79-6.73,9,9,0,0,1,6.47-2.78L71.25,122l2,0a9.09,9.09,0,0,1,5.55,2.71,9.21,9.21,0,0,1,2.81,6.73A9.11,9.11,0,0,1,78.75,138.16Z" transform="translate(-1.46 -10.45)"/><path class="cls-1" d="M17.56,23.55A10.83,10.83,0,0,1,20,25.14,9.86,9.86,0,0,1,20,39a9.3,9.3,0,0,1-6.9,2.91H1.46V10.68h8.72a8.42,8.42,0,0,1,6.2,2.6,8.17,8.17,0,0,1,2.48,6A9.93,9.93,0,0,1,17.56,23.55Zm-7.38-6.76H7.72V22.5c.56,0,1.34-.08,2.34-.15a3,3,0,0,0,2.76-2.87A2.69,2.69,0,0,0,10.18,16.79Zm6.51,15.29a3.9,3.9,0,0,0-3.62-3.84c-1.86-.1-3.47,0-5.35,0V35.8h5.35A3.66,3.66,0,0,0,16.69,32.08Z" transform="translate(-1.46 -10.45)"/><path class="cls-1" d="M67.78,15.37h6.27V46.61H67.78Z" transform="translate(-1.46 -10.45)"/><path class="cls-1" d="M91.13,34.36V28.08L91,15.37l6.28,0L97.41,28V34.4a12,12,0,0,1-3.7,8.9A12.38,12.38,0,0,1,85,46.94h-.21a12.16,12.16,0,0,1-7-2.17l3.18-5.5a5.66,5.66,0,0,0,3.87,1.39h.14A6.32,6.32,0,0,0,91.13,34.36Z" transform="translate(-1.46 -10.45)"/><path class="cls-1" d="M118.18,35.62l15.29-21v32h-6.28V33.67l-9,12.44-9-12.44V46.61h-6.28v-32Z" transform="translate(-1.46 -10.45)"/><path class="cls-1" d="M152.32,14.73l14.26,31.88h-6.8l-2.11-4.75H147l-2.11,4.75h-6.78Zm2.87,21.59-2.85-6.61-2.89,6.61Z" transform="translate(-1.46 -10.45)"/><path class="cls-1" d="M188.51,32.64V15.29h6.3v32L176,29.31V46.65h-6.28V14.71Z" transform="translate(-1.46 -10.45)"/><path class="cls-1" d="M207.79,40.46c1.73,0,3.65-1.44,3.65-3.17,0-2.85-3.83-3.25-6-4-3.81-1.3-7.17-4.43-7.17-8.68a9.53,9.53,0,0,1,19-1.32L211,24.61a3.17,3.17,0,0,0-6.34,0c0,2.81,3.56,3.56,5.73,4.21,3.94,1.13,7.42,4.14,7.42,8.49,0,5.26-4.73,9.52-10,9.52a10,10,0,0,1-9.91-8.2l6.24-1.32c0,1.74,1.89,3.16,3.66,3.16Z" transform="translate(-1.46 -10.45)"/><path class="cls-1" d="M59.12,19.73a15.16,15.16,0,0,0-10-4.63l-2,0L42,10.48v0A15.23,15.23,0,0,0,31.28,15.1a15.39,15.39,0,0,0-4.65,11.22A15.76,15.76,0,0,0,41.77,42.09l5.35,4.64h2A15.84,15.84,0,0,0,63.79,31,15.26,15.26,0,0,0,59.12,19.73Zm-4.49,17.9a9.2,9.2,0,0,1-5.55,2.71l-2,0L42,35.79v0A9.47,9.47,0,0,1,33,26.28a9.22,9.22,0,0,1,2.79-6.72,9,9,0,0,1,6-2.75l5.4,4.68,2,0a9.57,9.57,0,0,1,8.36,9.45A9.08,9.08,0,0,1,54.63,37.63Z" transform="translate(-1.46 -10.45)"/></svg>
